X:1
T:Title
%%score { ( 1 3 ) | ( 2 4 ) }
L:1/8
M:4/4
K:Bb
V:1 treble nm="Grand Piano"
V:3 treble 
V:2 bass 
V:4 bass 
V:1
 z4 z2[Q:1/4=100] [DF]2 | [DB]3 [Ec] [DB][FA][EG][DF] | [EG]2 [DF]2 [F,B,D]2 [B,DF]2 | %3
 [A,CF]4 [CE]4 | [F,B,D]6 [B,DF]2 | [DB]3 [Ec] [DB][FA][EG][DF] | [DB]2 [EG]2 [DF]2 [DFB]2 | %7
 [CFA]4 [B,=EG]4 | F6 F2 | c3 =B cedc | B2 [FA]2 [EG]2 [DF]2 | [EG]3 [FA] [GB][Gc][GB][EG] | %12
 [DF]2 [FB]2 c2 F2 | z4 [DB]4 | B6 G2 | F4 B3 c |[M:3/4] [DFB]6 |] %17
V:2
 z4 z2 [B,,B,]2 | [B,,F,]3 [B,,F,] [B,,F,][B,,B,][B,,B,][B,,B,] | [B,,B,]2 [B,,B,]2 B,,2 B,,2 | %3
 F,4 F,2 F,2 | B,,6 B,,2 | [B,,F,]3 [B,,F,] [B,,F,][B,,B,][B,,B,][B,,B,] | %6
 [B,,F,]2 [B,,B,]2 [B,,B,]2 B,,2 | C,4 C,4 | [F,A,]6 [F,A,]2 | %9
 [F,A,F]3 [F,_A,F] [F,=A,F][F,CF][F,B,F][F,A,E] | [G,B,D]2 [D,B,]2 [E,B,]2 [B,,B,]2 | %11
 [E,B,]3 [E,B,] [E,B,][E,E][E,E][E,B,] | [B,,B,]2 [D,B,]2 [F,A,F]2 [F,A,]2 | [B,,B,]4 F,2 z2 | %14
 [E,G,E]6 [E,B,E]2 | z4 D4 |[M:3/4] B,,6 |] %17
V:3
 x8 | x8 | x8 | z4 A,2 z2 | x8 | x8 | x8 | x8 | x8 | x8 | x8 | x8 | x8 | [Fd]4 z2 _A,2 | x8 | x8 | %16
[M:3/4] x6 |] %17
V:4
 x8 | x8 | x8 | x8 | x8 | x8 | x8 | x8 | x8 | x8 | x8 | x8 | x8 | z4 B,,4 | x8 | %15
 [F,B,D]4 [F,F]3- [F,EF] |[M:3/4] x6 |] %17

